X:618
T:Highlandman Kissed His Mother
B:Kerr's Merry Melodies
Z:Nigel Gatherer
L:1/8
M:4/4
K:Ador
cgge gcge | cgge dBGB | cgge gcge  | afge dBGB :|
ceAe ceAe | ceAe dBGB | ceAe ceA^g | afge dBGB :|]
<end>
<start>
